X:1
T:大提琴练习曲_Book1_P15_No.22
T:大提琴练习曲_Book1_P15_No.22
L:1/8
Q:1/4=80
M:3/2
K:D
V:1 bass nm="大提琴" snm="Vc."
V:1
 C,,2 C,,2 C,,2 C,,2 C,,2 C,,2 | D,,2 D,,!2!E,, F,,2 G,,F,, E,,2 A,,F,, | %2
 D,,2 D,,!2!E,, F,,2 G,,F,, E,,2 A,,F,, | D,,2 D,,!2!E,, F,,2 E,,F,, G,,2 F,,G,, | %4
 A,,2 G,,A,, !2!B,,2 A,,B,, C,2 D,!2!B,, | A,,2 A,,!2!B,, C,2 D,C, B,,2 E,C, | %6
 A,,2 A,,!2!B,, C,2 D,C, B,,2 E,!2!B,, | A,,2 A,,!2!B,, C,2 C,D, E,2 !1!E,!2!F, | %8
 !3!G,2 !4!C,D, E,2 !2!F,!3!G, !0!A,2 !4!G,!1!E, | D,2 A,!4!G, F,2 E,F, G,2 A,F, | %10
 D,2 A,G, F,2 E,F, G,2 A,F, | D,2 A,D, E,2 A,E, F,2 A,F, | G,2 A,G, F,2 A,F, E,2 CE, | %13
 D,2 DE, F,2 DF, E,2 CE, | D,2 DE, F,2 DF, E,2 CE, | D,2 DC B,2 A,G, F,2 G,E, | %16
 D,2 A,!3!G, !2!F,2 F,E, D,2 E,C, | !2!B,,2 B,,C, D,2 E,D, C,2 !3!G,!2!F, | %18
 !2!B,,2 B,,C, D,2 E,D, C,2 !2!F,D, | !2!B,,2 !1!B,!2!C B,2 !2!B,,!4!C, E,2 D,B,, | %20
 A,,2 A,B, A,2 !1!A,,!3!B,, !0!D,2 !4!=C,A,, | G,,2 G,F, E,2 D,=C, B,,2 A,,D, | %22
 G,,2 G,F, E,2 D,=C, B,,2 A,,F, | G,2 G,,G, F,2 A,,F, E,2 B,,E, | D,2 =C,D, E,2 B,,E, F,2 A,,F, | %25
 G,2 G,,F, E,2 _B,,E, F,2 A,,F, | G,2 G,,F, E,2 =B,,E, F,2 A,,F, | %27
 G,2 G,,A,, B,,2 B,,=C, D,2 !1!E,!2!F, | !3!G,2 ^C,!0!D, E,2 !2!F,!3!G, !0!A,2 !1!B,!2!C | %29
 D,2 !3!D!2!C !1!B,2 !0!A,!3!G, !2!F,2 A,E, | D,2 D,!4!C, !2!B,,2 A,,G,, F,,2 A,,!2!E,, | %31
 D,,2 !1!A,,!2!E,, D,,2 A,,E,, D,,2 A,,E,, | D,,2 A,,!4!F,, D,,2 A,,F,, D,,2 A,,F,, | %33
 D,,2 D,D, D,2 !4!DD D2 D,D, | D,2 D,,D,, D,, D,,2 z z4 |] %35

